X:1
T:Doxology
M:5/4
L:1/4
K:G
 G| G F E D|
M:5/4
 G A B2 B|
M:4/4
 B B A G| c B A2| G
M:4/4
| A B A G| E F G2| d B G A|
M:5/4
 G E F G2|||
